X: 1621
T: Rûhum Şu Gelen Yılda Bile...
C: Alâeddin Yavaşca
O: Turkey
F: http://compmusic.upf.edu/node/140
N: acemkurdi--sarki--aksak--ruhum_su--alaeddin_yavasca
N: makam= acemkurdi
N: form= sarki
N: usul= aksak = 9/8
M: 9/8
L: 1/16
K: C _B   
Q: 1/4=132
%%MIDI tuningsystem comma53
f3/2e/f2 c3/2_1/4B/c2 zcde fgag f2 | \
w:  ARANAĞME  | 
ag a2ze fagf edc6  | 
w:   | 
b3a g2b2 a2g2 f4 a2 | zc defg abag fef6  | 
w:   |   | 
e2f4a2 g2f2 e2d2 c2 | c2 d_ed2 c2B2 {c}BAB4AG  | \
w:   |   | 
A2B4A2 G4 c4 BA | 
w:   | 
A6 c2d2 e2f6  | f3/2e/f2 c3/2_1/4B/c2 zcde fgag f2 | \
w:   |  ARANAĞME  | 
ag a2ze fagf edc6  | 
w:   | 
b3a g2b2 a2g2 f4 a2 | zc defg abag fef6  | 
w:   |   | 
e2f4a2 g2f2 e2d2 c2 | c2 d_ed2 c2B2 {c}BAB4AG  | \
w:   |   | 
A2B4A2 G4 c4 BA | 
w:   | 
A6 ABc2 BAA4z2  | f4 c4 d2e2 f4 a2 | \
w:   |  Ru hum  şu  ge len   | 
g2 f2e2 d2c8z2  | c4 d2c2 B4 A2c2 BA | 
w:  yıl *  da  bi le   |  ma zi yi  an  | 
A6 a2g2 f2e3dc2  | (3dc_1/4Bc2 d2e2 d4 e4 {a}gf | \
w:  dı    |  ma *  *  *  zi yi  an  | 
f6 efef gagf edc2  | 
w:  dı   SAZ  | 
(3dcBA2 B2d2 cBBA A6 | f4c4d2 e2f4a2  | \
w:   |  Ru hum  şu  ge len   | 
g2f2 e2d2 c8 z2 | 
w:  yıl *  da  bi le   | 
c4d2 c2B4A2 c2BA  | A6a2 g2f2 e3d c2 | \
w:  ma zi yi  an  |  dı    | 
(3dc_1/4B c2d2 e2d4e4{a}gf  | 
w:  ma *  *  *  zi yi  an  | 
f6ef efga gfed c2 | (3dc_1/4B c2d2 e2f2 egf6  | 
w:  dı   SAZ  |   | 
f4 e4 g2f2 e4 d2 | d4c2 d2e4c2 d2e2  | \
w:  Gön lüm  o  ge çen   |  ha tı ra ya  SAZ  | 
c4 d2f2 e2d2 c2B2 c2 | 
w:  sev gi ye  yan  | 
A8A2 B2c2 d2z2  | B4 A2G2 G4 A4 {c}BA | \
w:  dı    |  sev gi ye  yan  | 
A6 ABc2 d2c2 B2A2  | 
w:  dı   SAZ  | 
c4 c2c2 d3/2c/de f4 z2 | f4e4g2 f2e4d2  | \
w:   |  Gön lüm  o  ge çen   | 
d4 c2d2 e4 c2d2 e2 | 
w:  ha tı ra ya  SAZ  | 
c4d2 f2e2 d2c2 B2c2  | A8 A2B2 c2d2 z2 | \
w:  sev gi ye  yan  |  dı    | 
B4A2 G2G4A4{c}BA  | 
w:  sev gi ye  yan  | 
A6A_3/4B c3/2B/AB c4 _7/8B2 | A3_7/8agf e_7/8dc_2/4B ABc6  | \
w:  dı   SAZ  |   | 
c4 _3/4d4 c2d2 c4 (3_2/4BAB | 
w:  Her  gün  ge le cek   | 
c4_7/8d2 e2f2 efg6  | g4 g2c'2 _1/4b2_7/8a2 g2f2 e2 | \
w:  gün le re  növ *  *  bet   |  *  bı ra kın  | 
_7/8a8gf e_7/8de6  | 
w:  ca   növ *  *  *  bet   | 
e2_7/8d2 c2c2 =d4 e4 {a}gf | f6 efef gagf edc2  | \
w:  *  *  bı ra kın  |  ca   SAZ  | 
(3dc_2/4Bc2 d2e2 f2eg f6 | 
w:   | 
f4e4g2 f2e4d2  | d4 c2d2 e4 c2d2 e2 | \
w:  Gön lüm  o  ge çen   |  ha tı ra ya  SAZ  | 
c4d2 f2e2 d2c2 B2c2  | 
w:  sev gi ye  yan  | 
A8 A2B2 c2d2 z2 | B4A2 G2G4A4{c}BA  | \
w:  dı    |  sev gi ye  yan  | 
A6|
w:  dı    | 


